static/img/content/bot.svg

<svg width="45" height="45" viewBox="0 0 45 45" fill="none" xmlns="http://www.w3.org/2000/svg">
<g clip-path="url(#clip0)">
<path d="M7.47235 24.1717C7.54172 23.4727 7.6795 22.4321 8.17497 21.538C8.44488 21.051 8.82199 20.6052 9.35327 20.2815C9.88477 19.9578 10.5648 19.7598 11.4347 19.7598H29.2515C30.3152 19.7588 31.1777 18.8967 31.179 17.8326V3.92039C31.1777 2.85671 30.3153 1.99463 29.2516 1.99356C29.2516 1.99356 29.2516 1.99356 29.2515 1.99356M7.47235 24.1717L29.2516 1.89356L29.2515 1.99356M7.47235 24.1717C6.86163 23.7195 6.01326 22.7926 5.69923 21.0157L5.69908 21.0149C5.56306 20.2823 4.92067 19.7536 4.17591 19.7605H3.12778C2.06405 19.7592 1.20195 18.8971 1.20059 17.8334V3.92039C1.20195 2.85668 2.06403 1.99492 3.12778 1.99356M7.47235 24.1717L3.12778 1.99356M29.2515 1.99356H3.12778M29.2515 1.99356H3.12778M8.07153 25.8325L8.07253 25.8324C8.35315 25.7883 8.57698 25.5758 8.6366 25.2984C8.69417 25.0403 8.73104 24.7778 8.74645 24.5134C8.8304 23.6159 8.95996 22.7516 9.33963 22.1116C9.52814 21.7939 9.77769 21.5328 10.1142 21.3503C10.4512 21.1677 10.8813 21.0608 11.4351 21.0608H29.2516H29.2517C31.0333 21.0589 32.4774 19.6152 32.4796 17.8332V17.8331V3.92026V3.92014C32.4774 2.13852 31.0333 0.694817 29.2517 0.692969H29.2516L3.12765 0.692969L3.12753 0.692969C1.34593 0.695187 -0.0977817 2.13888 -0.1 3.92014V3.92026L-0.1 17.8328L-0.0999999 17.8329C-0.0977817 19.6145 1.34592 21.0582 3.12753 21.0604H3.12765H4.17629V21.0605L4.17916 21.0604C4.29289 21.0571 4.39298 21.1341 4.41937 21.2446C5.00603 24.5562 7.17508 25.573 7.66761 25.7631C7.76252 25.8129 7.86801 25.8393 7.9757 25.8393C8.00728 25.8393 8.03939 25.8372 8.07153 25.8325Z" fill="white" stroke="white" stroke-width="0.2"/>
<path d="M28.6071 12.1788H22.0024C21.6434 12.1788 21.3521 12.4697 21.3521 12.8291C21.3521 13.1881 21.6434 13.4794 22.0024 13.4794H28.6071C28.9665 13.4794 29.2573 13.1881 29.2573 12.8291C29.2573 12.4697 28.9664 12.1788 28.6071 12.1788Z" fill="white" stroke="white" stroke-width="0.2"/>
<path d="M19.533 12.8291C19.533 12.4697 19.2417 12.1788 18.8827 12.1788H8.47296C8.11397 12.1788 7.82267 12.4697 7.82267 12.8291C7.82267 13.1881 8.11393 13.4794 8.47296 13.4794H18.8827C19.2417 13.4794 19.533 13.1881 19.533 12.8291Z" fill="white" stroke="white" stroke-width="0.2"/>
<path d="M3.77222 13.4794H6.04398C6.40301 13.4794 6.69427 13.1881 6.69427 12.8291C6.69427 12.4697 6.40297 12.1788 6.04398 12.1788H3.77222C3.41282 12.1788 3.12192 12.4697 3.12192 12.8291C3.12192 13.1881 3.41278 13.4794 3.77222 13.4794Z" fill="white" stroke="white" stroke-width="0.2"/>
<path d="M26.8828 10.2572H28.6071C28.9661 10.2572 29.2574 9.96638 29.2574 9.60694C29.2574 9.2479 28.9661 8.95664 28.6071 8.95664H26.8828C26.5237 8.95664 26.2325 9.2479 26.2325 9.60694C26.2325 9.96638 26.5238 10.2572 26.8828 10.2572Z" fill="white" stroke="white" stroke-width="0.2"/>
<path d="M24.4677 10.2572C24.8267 10.2572 25.118 9.96638 25.118 9.60694C25.118 9.2479 24.8267 8.95664 24.4677 8.95664H21.5808C21.2218 8.95664 20.9305 9.2479 20.9305 9.60694C20.9305 9.96638 21.2218 10.2572 21.5808 10.2572H24.4677Z" fill="white" stroke="white" stroke-width="0.2"/>
<path d="M3.77222 10.2572H19.1464C19.5058 10.2572 19.7967 9.96633 19.7967 9.60694C19.7967 9.24794 19.5059 8.95664 19.1464 8.95664H3.77222C3.41278 8.95664 3.12192 9.24794 3.12192 9.60694C3.12192 9.96633 3.41282 10.2572 3.77222 10.2572Z" fill="white" stroke="white" stroke-width="0.2"/>
<path d="M27.2131 6.39102H28.6071C28.9661 6.39102 29.2574 6.09976 29.2574 5.74073C29.2574 5.38169 28.9661 5.09043 28.6071 5.09043H27.2131C26.8536 5.09043 26.5628 5.38173 26.5628 5.74073C26.5628 6.09972 26.8536 6.39102 27.2131 6.39102Z" fill="white" stroke="white" stroke-width="0.2"/>
<path d="M18.7935 6.39102H24.7655C25.1245 6.39102 25.4158 6.09976 25.4158 5.74073C25.4158 5.38169 25.1245 5.09043 24.7655 5.09043H18.7935C18.4341 5.09043 18.1432 5.38173 18.1432 5.74073C18.1432 6.09972 18.4341 6.39102 18.7935 6.39102Z" fill="white" stroke="white" stroke-width="0.2"/>
<path d="M3.77222 6.39102H16.3591C16.7182 6.39102 17.0094 6.09976 17.0094 5.74073C17.0094 5.38169 16.7182 5.09043 16.3591 5.09043H3.77222C3.41278 5.09043 3.12192 5.38173 3.12192 5.74073C3.12192 6.09972 3.41278 6.39102 3.77222 6.39102Z" fill="white" stroke="white" stroke-width="0.2"/>
<path d="M22.1676 15.401H21.9007C21.5417 15.401 21.2504 15.6922 21.2504 16.0513C21.2504 16.4103 21.5417 16.7016 21.9007 16.7016H22.1676C22.5266 16.7016 22.8179 16.4103 22.8179 16.0513C22.8179 15.6922 22.5266 15.401 22.1676 15.401Z" fill="white" stroke="white" stroke-width="0.2"/>
<path d="M19.6659 15.401H14.8938C14.5348 15.401 14.2435 15.6922 14.2435 16.0513C14.2435 16.4103 14.5348 16.7016 14.8938 16.7016H19.6659C20.0249 16.7016 20.3162 16.4103 20.3162 16.0513C20.3162 15.6922 20.0249 15.401 19.6659 15.401Z" fill="white" stroke="white" stroke-width="0.2"/>
<path d="M12.5003 16.0513C12.5003 15.6923 12.2095 15.401 11.85 15.401H3.77222C3.41278 15.401 3.12192 15.6923 3.12192 16.0513C3.12192 16.4103 3.41278 16.7016 3.77222 16.7016H11.85C12.2095 16.7016 12.5003 16.4103 12.5003 16.0513Z" fill="white" stroke="white" stroke-width="0.2"/>
<path d="M42.1843 21.0593C40.5455 20.9582 39.1114 22.1499 38.9104 23.7794C38.7128 25.3813 39.7737 26.8623 41.343 27.1976V30.2677C40.9681 30.1386 40.5805 30.0501 40.1864 30.004C40.1371 28.1676 38.6339 26.6936 36.786 26.6914H36.7859H32.2733V25.0137V25.0136C32.2725 24.2254 31.6338 23.5864 30.8453 23.5852H30.8452H27.0555V21.9545C27.0555 21.5954 26.7642 21.3042 26.4052 21.3042C26.0458 21.3042 25.7549 21.5955 25.7549 21.9545V23.5852L22.0301 23.5852L22.0299 23.5852C21.2418 23.5864 20.6031 24.2251 20.602 25.0132V25.0133V26.691H16.0897H16.0896C14.2119 26.6932 12.6901 28.2151 12.6879 30.0927V30.0928L12.6879 40.9647L12.6879 40.9648C12.6901 42.8425 14.2119 44.3643 16.0896 44.3665H16.0897H36.7859H36.786C38.634 44.3643 40.1374 42.8901 40.1865 41.0535C42.4877 40.7844 44.3846 39.1141 44.9393 36.8582L44.8422 36.8343L44.9393 36.8581C45.4965 34.5908 44.5778 32.2188 42.6436 30.9177V27.1975C44.0712 26.8904 45.0977 25.6281 45.0999 24.1604V24.1603C45.1002 22.5186 43.8231 21.16 42.1843 21.0593ZM42.1843 21.0593L42.1782 21.1591L42.1843 21.0593C42.1843 21.0593 42.1843 21.0593 42.1843 21.0593ZM36.7858 43.0659C37.9455 43.0645 38.8857 42.1243 38.8871 40.9646V30.0933C38.8857 28.9335 37.9455 27.9934 36.7858 27.992H16.0898C14.9301 27.9934 13.9899 28.9335 13.9885 30.0932M36.7858 43.0659L13.8885 30.0932L13.9885 30.0933M36.7858 43.0659H16.0898C14.9301 43.0645 13.9899 42.1244 13.9885 40.9647M36.7858 43.0659L13.9885 40.9647M13.9885 30.0932C13.9885 30.0932 13.9885 30.0932 13.9885 30.0933M13.9885 30.0932L13.9885 30.0933M13.9885 30.0932L13.9885 40.9646M13.9885 30.0933V40.9646M13.9885 40.9646L13.9885 40.9647M13.9885 40.9646L13.9885 40.9647M21.9029 25.0137C21.9029 24.9437 21.9598 24.8864 22.0306 24.8862C22.0307 24.8862 22.0307 24.8862 22.0307 24.8862H30.8449C30.8449 24.8862 30.8449 24.8862 30.845 24.8862C30.9158 24.8864 30.9727 24.9437 30.9727 25.0137V26.6914H21.9029V25.0137ZM43.7993 35.5288C43.7968 37.6358 42.2587 39.4193 40.1877 39.7411V31.3165C42.2587 31.6382 43.7968 33.422 43.7993 35.5288ZM40.1877 24.1602C40.1878 23.1629 40.996 22.3547 41.9933 22.3547C42.9907 22.3547 43.7993 23.163 43.7993 24.1603C43.7993 25.1576 42.9907 25.9662 41.9934 25.9663C40.9967 25.9652 40.1887 25.1573 40.1877 24.1602Z" fill="white" stroke="white" stroke-width="0.2"/>
<path d="M18.4808 35.3975H20.291V34.4794C20.2907 34.1298 20.0073 33.8463 19.6572 33.8456C19.6572 33.8456 19.6571 33.8456 19.6571 33.8456H19.1147C19.1147 33.8456 19.1147 33.8456 19.1146 33.8456C18.7645 33.8463 18.4812 34.1298 18.4808 34.4793C18.4808 34.4794 18.4808 34.4794 18.4808 34.4794M18.4808 35.3975L18.3808 34.4793L18.4808 34.4794M18.4808 35.3975L18.4808 34.4794M18.4808 35.3975L18.4808 34.4794M19.6574 32.545H19.6573L19.1145 32.545L19.1144 32.545C18.0465 32.5465 17.1813 33.4116 17.1802 34.4792V34.4793V36.0478C17.1802 36.4068 17.4711 36.6981 17.8305 36.6981H20.9413C21.3008 36.6981 21.5916 36.4068 21.5916 36.0478V34.4793V34.4792C21.5905 33.4116 20.7254 32.5465 19.6574 32.545Z" fill="white" stroke="white" stroke-width="0.2"/>
<path d="M32.5846 35.3975H34.3948V34.4794C34.3945 34.1298 34.1111 33.8463 33.7609 33.8456C33.7609 33.8456 33.7609 33.8456 33.7609 33.8456H33.2185C33.2184 33.8456 33.2184 33.8456 33.2184 33.8456C32.8683 33.8463 32.5849 34.1298 32.5846 34.4793C32.5846 34.4794 32.5846 34.4794 32.5846 34.4794M32.5846 35.3975L32.4846 34.4793L32.5846 34.4794M32.5846 35.3975L32.5846 34.4794M32.5846 35.3975L32.5846 34.4794M33.7612 32.545H33.761L33.2183 32.545L33.2181 32.545C32.1502 32.5465 31.2851 33.4116 31.284 34.4792V34.4793V36.0478C31.284 36.4068 31.5748 36.6981 31.9343 36.6981H35.0451C35.4045 36.6981 35.6954 36.4068 35.6954 36.0478V34.4793V34.4792C35.6942 33.4116 34.8291 32.5465 33.7612 32.545Z" fill="white" stroke="white" stroke-width="0.2"/>
<path d="M22.6763 39.0735L22.6763 39.0737C22.6785 40.8502 24.1179 42.29 25.8945 42.2919H25.8946H26.9805H26.9806C28.7573 42.29 30.197 40.8503 30.1989 39.0736V39.0735V38.5308C30.1989 38.1714 29.908 37.8805 29.5486 37.8805H23.3266C22.9676 37.8805 22.6763 38.1713 22.6763 38.5308L22.6763 39.0735ZM26.9804 40.9913H25.8947C24.8725 40.9903 24.0369 40.1902 23.98 39.1811H28.8953C28.8386 40.1902 28.0027 40.9903 26.9804 40.9913Z" fill="white" stroke="white" stroke-width="0.2"/>
</g>
<defs>
<clipPath id="clip0">
<rect width="45" height="45" fill="white"/>
</clipPath>
</defs>
</svg>

<svg width="45" height="45" viewBox="0 0 45 45" fill="none" xmlns="http://www.w3.org/2000/svg"><g clip-path="url(#a)" fill="#fff" stroke="#fff" stroke-width=".2"><path d="M7.472 24.172c.07-.7.207-1.74.703-2.634.27-.487.647-.933 1.178-1.256.532-.324 1.212-.522 2.082-.522H29.25a1.93 1.93 0 0 0 1.928-1.927V3.92a1.93 1.93 0 0 0-1.927-1.926M7.471 24.172l21.78-22.278v.1M7.471 24.172c-.61-.453-1.459-1.38-1.773-3.156v-.001a1.535 1.535 0 0 0-1.523-1.255H3.128A1.93 1.93 0 0 1 1.2 17.834V3.92a1.93 1.93 0 0 1 1.927-1.926m4.344 22.178L3.128 1.994m26.123 0H3.128m26.123 0H3.128m4.944 23.838a.686.686 0 0 0 .565-.534c.057-.258.094-.52.11-.785.083-.897.213-1.761.593-2.401.188-.318.438-.58.774-.762.337-.182.767-.29 1.321-.29h17.817a3.231 3.231 0 0 0 3.228-3.227V3.92A3.231 3.231 0 0 0 29.252.693H3.128A3.231 3.231 0 0 0-.1 3.92v13.913a3.232 3.232 0 0 0 3.228 3.227h1.051a.24.24 0 0 1 .24.185c.587 3.311 2.756 4.328 3.249 4.518a.663.663 0 0 0 .404.07z"/><path d="M28.607 12.179h-6.605a.65.65 0 1 0 0 1.3h6.605a.65.65 0 1 0 0-1.3zm-9.074.651a.65.65 0 0 0-.65-.651H8.473a.65.65 0 1 0 0 1.3h10.41a.65.65 0 0 0 .65-.65zm-15.761.65h2.272a.65.65 0 0 0 0-1.301H3.772a.65.65 0 1 0 0 1.3zm23.111-3.223h1.724a.65.65 0 1 0 0-1.3h-1.724a.65.65 0 0 0 0 1.3zm-2.415 0a.65.65 0 1 0 0-1.3H21.58a.65.65 0 0 0 0 1.3h2.887zm-20.696 0h15.374a.65.65 0 1 0 0-1.3H3.772a.65.65 0 1 0 0 1.3zm23.441-3.866h1.394a.65.65 0 0 0 0-1.3h-1.394a.65.65 0 1 0 0 1.3zm-8.419 0h5.971a.65.65 0 0 0 0-1.3h-5.971a.65.65 0 1 0 0 1.3zm-15.022 0H16.36a.65.65 0 0 0 0-1.3H3.772a.65.65 0 1 0 0 1.3zm18.396 9.01H21.9a.65.65 0 0 0 0 1.3h.267a.65.65 0 0 0 0-1.3zm-2.502 0h-4.772a.65.65 0 0 0 0 1.3h4.772a.65.65 0 0 0 0-1.3zm-7.166.65a.65.65 0 0 0-.65-.65H3.772a.65.65 0 1 0 0 1.3h8.078a.65.65 0 0 0 .65-.65zm29.684 5.009a3.106 3.106 0 0 0-.841 6.138v3.07a5.522 5.522 0 0 0-1.157-.264 3.406 3.406 0 0 0-3.4-3.313h-4.513v-1.677a1.43 1.43 0 0 0-1.428-1.429h-3.79v-1.63a.65.65 0 0 0-1.3 0v1.63H22.03a1.43 1.43 0 0 0-1.428 1.428v1.678H16.09a3.406 3.406 0 0 0-3.402 3.402v10.872a3.406 3.406 0 0 0 3.402 3.401h20.696a3.406 3.406 0 0 0 3.4-3.313 5.56 5.56 0 0 0 4.753-4.195l-.097-.024.097.024a5.56 5.56 0 0 0-2.295-5.94v-3.72a3.106 3.106 0 0 0-.46-6.138zm0 0l-.006.1.006-.1zm-5.398 22.006a2.104 2.104 0 0 0 2.101-2.101V30.093a2.104 2.104 0 0 0-2.101-2.101H16.09c-1.16.001-2.1.941-2.101 2.101m22.797 12.973L13.888 30.093h.1m22.798 12.973H16.09a2.104 2.104 0 0 1-2.101-2.101m22.797 2.1l-22.797-2.1m0-10.872v10.872m0-10.872v10.872m7.914-15.951c0-.07.057-.128.128-.128h8.814c.07 0 .128.058.128.128v1.677h-9.07v-1.677zm21.896 10.515a4.268 4.268 0 0 1-3.611 4.212v-8.424a4.268 4.268 0 0 1 3.611 4.212zM40.188 24.16a1.805 1.805 0 1 1 3.61 0 1.805 1.805 0 0 1-3.61 0z"/><path d="M18.48 35.398h1.811v-.919a.635.635 0 0 0-.634-.633h-.542a.635.635 0 0 0-.634.633m0 .919l-.1-.919h.1m0 .919v-.919m0 .919v-.919m1.176-1.934h-.543a1.936 1.936 0 0 0-1.934 1.934v1.569c0 .359.291.65.65.65h3.111a.65.65 0 0 0 .65-.65v-1.569a1.936 1.936 0 0 0-1.934-1.934zm12.928 2.853h1.81v-.919a.635.635 0 0 0-.634-.633h-.543a.635.635 0 0 0-.633.633m0 .919l-.1-.919h.1m0 .919v-.919m0 .919v-.919m1.176-1.934h-.543a1.936 1.936 0 0 0-1.934 1.934v1.569c0 .359.29.65.65.65h3.111a.65.65 0 0 0 .65-.65v-1.569a1.937 1.937 0 0 0-1.934-1.934zm-11.085 6.529a3.222 3.222 0 0 0 3.219 3.218h1.085a3.222 3.222 0 0 0 3.219-3.218v-.543a.65.65 0 0 0-.65-.65h-6.222a.65.65 0 0 0-.65.65v.543zm4.304 1.917h-1.085a1.92 1.92 0 0 1-1.915-1.81h4.915a1.92 1.92 0 0 1-1.915 1.81z"/></g><defs><clipPath id="a"><path fill="#fff" d="M0 0h45v45H0z"/></clipPath></defs></svg>
